assets/icons/icon-locationpin/web/icon-locationpin.svg

<?xml version="1.0" encoding="UTF-8" standalone="no"?>
<svg width="48px" height="48px" viewBox="0 0 48 48" version="1.1" xmlns="http://www.w3.org/2000/svg" xmlns:xlink="http://www.w3.org/1999/xlink">
    <!-- Generator: Sketch 45.2 (43514) - http://www.bohemiancoding.com/sketch -->
    <title>icon-locationpin</title>
    <desc>Created with Sketch.</desc>
    <defs></defs>
    <g id="Symbols" stroke="none" stroke-width="1" fill="none" fill-rule="evenodd">
        <g id="icon-locationpin" fill="#2D2D2D" fill-rule="nonzero">
            <path d="M23.5,16.8181818 C26.12758,16.8181818 28.25,18.9788181 28.25,21.6363636 C28.25,24.2939091 26.12758,26.4545455 23.5,26.4545455 C20.8720935,26.4545455 18.75,24.294055 18.75,21.6363636 C18.75,18.9786723 20.8720935,16.8181818 23.5,16.8181818 Z M23.5,18.8181818 C21.9847702,18.8181818 20.75,20.0752938 20.75,21.6363636 C20.75,23.1974335 21.9847702,24.4545455 23.5,24.4545455 C25.0149427,24.4545455 26.25,23.1972497 26.25,21.6363636 C26.25,20.0754776 25.0149427,18.8181818 23.5,18.8181818 Z M23.5,13 C28.1988413,13 32,16.8696024 32,21.6363636 C32,22.4292876 31.8917806,23.2488038 31.6839434,24.0919613 C31.1167559,26.392938 29.8354231,28.8022319 28.057342,31.2349702 C27.2137358,32.3891768 26.3117763,33.4739882 25.4094961,34.4596609 C25.0932133,34.8051758 24.7990053,35.1140943 24.5341446,35.3825667 C24.3731157,35.5457914 24.2561311,35.6606845 24.1904757,35.7233555 L23.5,36.382446 L22.8095243,35.7233555 C22.7438689,35.6606845 22.6268843,35.5457914 22.4658554,35.3825667 C22.2009947,35.1140943 21.9067867,34.8051758 21.5905039,34.4596609 C20.6882237,33.4739882 19.7862642,32.3891768 18.942658,31.2349702 C17.1645769,28.8022319 15.8832441,26.392938 15.3160566,24.0919613 C15.1082194,23.2488038 15,22.4292876 15,21.6363636 C15,16.869447 18.800842,13 23.5,13 Z M23.9342539,33.1092312 C24.7897862,32.1746269 25.6456392,31.1452692 26.442658,30.0548025 C28.0804506,27.8140046 29.2475327,25.6195364 29.7420692,23.613292 C29.9128195,22.9205891 30,22.2603947 30,21.6363636 C30,17.9662618 27.086204,15 23.5,15 C19.913499,15 17,17.9660875 17,21.6363636 C17,22.2603947 17.0871805,22.9205891 17.2579308,23.613292 C17.7524673,25.6195364 18.9195494,27.8140046 20.557342,30.0548025 C21.3543608,31.1452692 22.2102138,32.1746269 23.0657461,33.1092312 C23.2163633,33.273769 23.361429,33.4292585 23.5,33.5751787 C23.638571,33.4292585 23.7836367,33.273769 23.9342539,33.1092312 Z"></path>
        </g>
    </g>
</svg>

<svg width="48" height="48" viewBox="0 0 48 48" xmlns="http://www.w3.org/2000/svg"><title>icon-locationpin</title><path d="M23.5 16.818c2.628 0 4.75 2.16 4.75 4.818 0 2.658-2.122 4.819-4.75 4.819s-4.75-2.16-4.75-4.819c0-2.657 2.122-4.818 4.75-4.818zm0 2c-1.515 0-2.75 1.257-2.75 2.818 0 1.561 1.235 2.819 2.75 2.819s2.75-1.258 2.75-2.819c0-1.56-1.235-2.818-2.75-2.818zm0-5.818c4.699 0 8.5 3.87 8.5 8.636 0 .793-.108 1.613-.316 2.456-.567 2.3-1.849 4.71-3.627 7.143a38.123 38.123 0 0 1-3.523 4.148c-.16.163-.278.278-.344.34l-.69.66-.69-.66a34.237 34.237 0 0 1-1.219-1.264 38.123 38.123 0 0 1-2.648-3.224c-1.778-2.433-3.06-4.842-3.627-7.143A10.263 10.263 0 0 1 15 21.636C15 16.87 18.8 13 23.5 13zm.434 20.11a36.145 36.145 0 0 0 2.509-3.055c1.637-2.241 2.805-4.435 3.3-6.442A8.28 8.28 0 0 0 30 21.636C30 17.966 27.086 15 23.5 15c-3.587 0-6.5 2.966-6.5 6.636 0 .624.087 1.285.258 1.977.494 2.007 1.662 4.201 3.3 6.442a36.145 36.145 0 0 0 2.942 3.52c.139-.146.284-.301.434-.466z" fill="#2D2D2D" fill-rule="nonzero"/></svg>
